packages/radix-icons/outline/15/link-horizontal.svg

<svg width="15" height="15" fill="none" xmlns="http://www.w3.org/2000/svg">
  <path
    fill-rule="evenodd"
    clip-rule="evenodd"
    d="M4.62471 4.00001L4.56402 4.00001C4.04134 3.99993 3.70687 3.99988 3.4182 4.055C2.23789 4.28039 1.29846 5.17053 1.05814 6.33035C0.999534 6.61321 0.9996 6.93998 0.999699 7.43689L0.999707 7.50001L0.999699 7.56313C0.9996 8.06004 0.999534 8.38681 1.05814 8.66967C1.29846 9.8295 2.23789 10.7196 3.4182 10.945C3.70687 11.0001 4.04134 11.0001 4.56402 11L4.62471 11H5.49971C5.77585 11 5.99971 10.7762 5.99971 10.5C5.99971 10.2239 5.77585 10 5.49971 10H4.62471C4.02084 10 3.78907 9.99777 3.60576 9.96277C2.80262 9.8094 2.19156 9.21108 2.03734 8.46678C2.00233 8.29778 1.99971 8.08251 1.99971 7.50001C1.99971 6.91752 2.00233 6.70225 2.03734 6.53324C2.19156 5.78895 2.80262 5.19062 3.60576 5.03725C3.78907 5.00225 4.02084 5.00001 4.62471 5.00001H5.49971C5.77585 5.00001 5.99971 4.77615 5.99971 4.50001C5.99971 4.22387 5.77585 4.00001 5.49971 4.00001H4.62471ZM10.3747 5.00001C10.9786 5.00001 11.2103 5.00225 11.3937 5.03725C12.1968 5.19062 12.8079 5.78895 12.9621 6.53324C12.9971 6.70225 12.9997 6.91752 12.9997 7.50001C12.9997 8.08251 12.9971 8.29778 12.9621 8.46678C12.8079 9.21108 12.1968 9.8094 11.3937 9.96277C11.2103 9.99777 10.9786 10 10.3747 10H9.49971C9.22357 10 8.99971 10.2239 8.99971 10.5C8.99971 10.7762 9.22357 11 9.49971 11H10.3747L10.4354 11C10.9581 11.0001 11.2925 11.0001 11.5812 10.945C12.7615 10.7196 13.701 9.8295 13.9413 8.66967C13.9999 8.38681 13.9998 8.06005 13.9997 7.56314L13.9997 7.50001L13.9997 7.43688C13.9998 6.93998 13.9999 6.61321 13.9413 6.33035C13.701 5.17053 12.7615 4.28039 11.5812 4.055C11.2925 3.99988 10.9581 3.99993 10.4354 4.00001L10.3747 4.00001H9.49971C9.22357 4.00001 8.99971 4.22387 8.99971 4.50001C8.99971 4.77615 9.22357 5.00001 9.49971 5.00001H10.3747ZM5.00038 7C4.72423 7 4.50038 7.22386 4.50038 7.5C4.50038 7.77614 4.72423 8 5.00038 8H10.0004C10.2765 8 10.5004 7.77614 10.5004 7.5C10.5004 7.22386 10.2765 7 10.0004 7H5.00038Z"
    fill="currentColor"
  />
</svg>

<svg width="15" height="15" fill="none" xmlns="http://www.w3.org/2000/svg">
  <path
    fill-rule="evenodd"
    clip-rule="evenodd"
    d="M4.625 4h-.061c-.523 0-.857 0-1.146.055-1.18.225-2.12 1.116-2.36 2.275C1 6.613 1 6.94 1 7.437v.126c0 .497 0 .824.058 1.107.24 1.16 1.18 2.05 2.36 2.275.289.055.623.055 1.146.055H5.5a.5.5 0 100-1h-.875c-.604 0-.836-.002-1.02-.037-.802-.154-1.413-.752-1.568-1.496C2.002 8.297 2 8.083 2 7.5c0-.582.002-.798.037-.967.155-.744.766-1.342 1.569-1.496C3.789 5.002 4.02 5 4.625 5H5.5a.5.5 0 000-1h-.875zm5.75 1c.604 0 .835.002 1.019.037.803.154 1.414.752 1.568 1.496.035.17.038.385.038.967 0 .583-.003.798-.038.967-.154.744-.765 1.342-1.568 1.496-.184.035-.415.037-1.02.037H9.5a.5.5 0 000 1h.935c.523 0 .857 0 1.146-.055 1.18-.225 2.12-1.116 2.36-2.275C14 8.387 14 8.06 14 7.563v-.126c0-.497 0-.824-.059-1.107-.24-1.16-1.18-2.05-2.36-2.275C11.293 4 10.958 4 10.435 4H9.5a.5.5 0 000 1h.875zM5 7a.5.5 0 100 1h5a.5.5 0 000-1H5z"
    fill="currentColor"
  />
</svg>
